packages/core/src/svgs/tokens/mono/MYST.svg

<svg width="24" height="24" viewBox="0 0 24 24" fill="none" xmlns="http://www.w3.org/2000/svg">
<path d="M21.9403 13.4583L15.4556 7.05712C15.4139 7.02032 15.3604 7 15.3048 7C15.2493 7 15.1957 7.02032 15.1541 7.05712L11.9702 10.189L8.84943 7.10812C8.82963 7.08822 8.8061 7.07243 8.78019 7.06167C8.75428 7.05089 8.72649 7.04535 8.69843 7.04535C8.67036 7.04535 8.64257 7.05089 8.61666 7.06167C8.59075 7.07243 8.56722 7.08822 8.54744 7.10812L7.57349 8.05156L3.99268 11.5163L3.20973 12.2753L2.05929 13.3817C2.0392 13.4017 2.02356 13.4256 2.01339 13.452C2.00322 13.4783 1.99876 13.5066 2.0003 13.5348C2.0003 13.5928 2.02579 13.6438 2.05929 13.6873L5.29411 16.8806C5.37911 16.9636 5.5186 16.9636 5.59559 16.8806L8.70193 13.8177L11.8488 16.9241C11.9337 17.0071 12.0732 17.0071 12.1502 16.9241L15.2646 13.8498L18.3969 16.9416C18.4172 16.9613 18.4415 16.9767 18.4681 16.9868C18.4947 16.9967 18.523 17.0011 18.5514 16.9996C18.6098 16.9996 18.6614 16.9815 18.7058 16.9416L21.9407 13.7483C21.9607 13.7285 21.9763 13.7045 21.9865 13.6783C21.9966 13.652 22.0012 13.6239 21.9998 13.5958C21.9998 13.5342 21.9807 13.4908 21.9403 13.4583ZM21.3593 13.7232L19.4994 13.0477L18.6463 11.2329L19.1389 11.3024L21.4772 13.6098L21.3593 13.7232ZM20.3083 14.7607L19.7568 13.5958L21.0247 14.0567L20.3083 14.7607ZM7.50399 10.5624L4.88264 11.2593L7.50349 8.71553L7.50399 10.5624ZM4.25017 11.8654L6.08807 11.3789L5.96708 13.4218L3.7322 12.3733L4.25017 11.8654ZM6.52954 11.2628L6.85653 11.1794L7.72798 12.4998L6.36406 13.9907L6.52954 11.2628ZM8.01846 12.1629L7.287 11.0559L7.70198 10.9469L8.74643 11.3719L8.01846 12.1629ZM7.93347 10.5804V9.80747L10.4189 10.011L11.0403 11.8508L7.93347 10.5804ZM10.0364 12.9718L10.9264 13.5088L11.0733 15.5586L9.81586 14.3252L10.0364 12.9718ZM11.2462 13.2043L10.1173 12.5144L10.2024 11.9778L11.2643 12.4129C11.2883 12.4327 11.3181 12.4444 11.3492 12.4458L12.4193 12.8883L12.8672 14.1982L11.2462 13.2043ZM12.8561 12.8268L14.0216 12.2318L13.1687 13.7302L12.8561 12.8268ZM14.4701 11.5349L13.3931 12.0863L13.6501 10.2829L15.15 11.1864L14.4701 11.5349ZM15.5986 10.9544L13.5876 9.74597L13.2352 9.53198L13.7641 9.01301L16.051 9.74597L16.268 10.6134L15.5986 10.9544ZM16.6945 10.537L16.161 8.34905L18.6463 10.8019L16.6945 10.537ZM16.7125 10.9654L17.1685 11.0235L17.6609 15.6026L16.3485 14.3072L16.7125 10.9654ZM17.6025 11.0924L18.1465 11.1683L18.9224 12.8193L17.9735 14.5577L17.6025 11.0924ZM15.2976 7.50759L15.5656 7.77208L15.9296 9.2635L14.1097 8.68304L15.2976 7.50759ZM12.1177 10.6494L12.9296 9.84747L13.2496 10.0435L12.9226 12.3258L12.5877 12.4963L11.5548 12.0793L10.7094 9.56849L11.8123 10.6569C11.8561 10.6911 11.9105 10.7089 11.9661 10.7075C12.0217 10.7063 12.0756 10.6857 12.1177 10.6494ZM8.69093 7.56909L10.0294 8.88602L10.2608 9.57549L7.93397 9.3795V8.29806L8.69093 7.56909ZM3.39721 12.6923L5.93408 13.8752L5.86409 15.0002L3.59571 14.6082L2.51876 13.5453L3.39721 12.6923ZM5.4411 16.4371L4.12118 15.1347L5.82708 15.4322L5.78309 16.0886L5.4411 16.4371ZM8.54394 13.3708L6.25006 15.6356L6.30905 14.6662L6.31605 14.6592L9.1614 11.5529L9.79031 11.8068L9.66138 12.5908L9.43739 13.9517L8.84892 13.3708C8.8083 13.3306 8.75352 13.3081 8.69643 13.3081C8.63934 13.3081 8.58455 13.3306 8.54394 13.3708ZM12.0037 16.4806L11.5367 16.0197L11.3818 13.7813L13.0877 14.8186L13.2426 15.2617L12.0037 16.4806ZM15.2716 13.3458C15.2148 13.3457 15.1598 13.3663 15.117 13.4038L13.5731 14.9277L13.3487 14.2707L14.7201 11.8689L16.264 11.0849L15.9556 13.9187L15.4296 13.3998C15.3843 13.3649 15.3288 13.3459 15.2716 13.3458ZM18.5509 16.4956L18.1354 16.0856L18.0504 15.3012L19.1464 13.2913L19.9843 15.0802L18.5509 16.4956Z" fill="white"/>
</svg>

<svg xmlns="http://www.w3.org/2000/svg" width="24" height="24" fill="none" viewBox="0 0 24 24">
    <path fill="#fff" d="m21.94 13.458-6.484-6.4a.23.23 0 0 0-.302 0l-3.184 3.131-3.12-3.08a.213.213 0 0 0-.303 0l-.974.943-3.58 3.464-.783.76-1.15 1.106a.2.2 0 0 0-.06.153c0 .058.026.109.06.152l3.234 3.194c.085.083.225.083.302 0l3.106-3.063 3.147 3.106c.085.083.224.083.301 0l3.115-3.074 3.132 3.092a.2.2 0 0 0 .154.058q.088.001.155-.058l3.235-3.194a.2.2 0 0 0 .059-.152.17.17 0 0 0-.06-.138m-.58.265-1.86-.675-.854-1.815.493.07 2.338 2.307zm-1.052 1.038-.551-1.165 1.268.46zM7.504 10.562l-2.621.697 2.62-2.543zM4.25 11.865l1.838-.486-.12 2.043-2.236-1.049zm2.28-.602.327-.084.871 1.32-1.364 1.492zm1.488.9-.731-1.107.415-.11 1.044.426zm-.085-1.583v-.773l2.486.204.621 1.84zm2.103 2.392.89.537.147 2.05-1.257-1.234zm1.21.232-1.129-.69.085-.536 1.062.435q.037.03.085.033l1.07.442.448 1.31zm1.61-.377 1.166-.595-.853 1.498zm1.614-1.292-1.077.551.257-1.803 1.5.903zm1.129-.58-2.011-1.209-.353-.214.53-.519 2.286.733.217.867zm1.096-.418-.534-2.188 2.485 2.453zm.017.428.457.059.492 4.579-1.312-1.296zm.89.127.544.076.776 1.651-.948 1.739zm-2.304-3.584.268.264.364 1.492-1.82-.581zm-3.18 3.141.812-.802.32.197-.327 2.282-.335.17-1.033-.417-.846-2.51 1.103 1.088a.24.24 0 0 0 .306-.008M8.69 7.57l1.338 1.317.232.69-2.327-.197V8.3zm-5.294 5.123 2.537 1.183L5.864 15l-2.268-.392-1.077-1.063zm2.044 3.745-1.32-1.302 1.706.297-.044.657zm3.103-3.066L6.25 15.636l.06-.97.006-.007 2.845-3.106.63.254-.13.784-.224 1.36-.588-.58a.217.217 0 0 0-.305 0m3.46 3.11-.467-.461-.155-2.239 1.706 1.038.155.443zm3.268-3.135a.23.23 0 0 0-.155.058l-1.544 1.524-.224-.657 1.371-2.402 1.544-.784-.308 2.834-.526-.52a.26.26 0 0 0-.158-.053m3.279 3.15-.416-.41-.085-.785 1.096-2.01.838 1.79z"/>
</svg>
